assets/images/Nam.svg

<svg fill="none" height="38" viewBox="0 0 55 38" width="55" xmlns="http://www.w3.org/2000/svg"><g fill="#ff5107"><path d="m22.2454 27.0726v-2.7885h.7482v2.7885z"/><path d="m22.2454 17.8455v-2.7885h.7482v2.7885z"/><path d="m22.2454 23.2675v-4.4054h2.7158v4.4054z"/><path clip-rule="evenodd" d="m6.62598 29.4566h2.63118v5.4321h5.43214v2.7765h5.3472l29.8809.0018v-2.7765-.002-27.54862l-5.4364.00023v-2.79217h-24.3596-5.4321v2.79217h-5.43214v5.43209h-2.63118zm5.25502-.0318v2.801h2.801v-2.801h2.8009v2.8254h10.3696v-2.7936h2.7936l.0073-16.6844h-2.8009v-2.79512h-10.3696l.0073 2.79512h-2.8009v-2.80091h-2.801v2.80091h2.801l-.003 6.8991h2.8009v2.8009h-2.8009l-.0043 6.9526zm10.3644-5.1407v2.7885h.7482v-2.7885zm0-9.2271v2.7885h.7482v-2.7885zm0 3.8051v4.4054h2.7158v-4.4054z" fill-rule="evenodd"/><path d="m32.5952.497335v2.795145h5.8565v-2.795146z"/><path d="m51.4451 13.1885h2.7951v-5.85652h-2.7951z"/><path d="m51.4451 37.667h2.7951v-5.8565h-2.7951z"/><path d="m.760254 34.8718v2.7952h5.856496v-2.7952z"/></g></svg>

<svg width="55" height="38" viewBox="0 0 55 38" fill="none" xmlns="http://www.w3.org/2000/svg">
<path d="M22.2454 27.0726L22.2454 24.2841L22.9936 24.2841L22.9936 27.0726L22.2454 27.0726Z" fill="#FF5107"/>
<path d="M22.2454 17.8455L22.2454 15.057L22.9936 15.057L22.9936 17.8455L22.2454 17.8455Z" fill="#FF5107"/>
<path d="M22.2454 23.2675L22.2454 18.8621L24.9612 18.8621L24.9612 23.2675L22.2454 23.2675Z" fill="#FF5107"/>
<path fill-rule="evenodd" clip-rule="evenodd" d="M6.62598 29.4566L9.25716 29.4566L9.25716 34.8887L14.6893 34.8887L14.6893 37.6652L20.0365 37.6652L49.9174 37.667L49.9174 34.8905L49.9174 34.8885L49.9174 7.33988L44.481 7.34011L44.481 4.54794L20.1214 4.54794L14.6893 4.54794L14.6893 7.34011L9.25716 7.34011L9.25716 12.7722L6.62598 12.7722L6.62598 29.4566ZM11.881 29.4248L11.881 32.2258L14.682 32.2258L14.682 29.4248L17.4829 29.4248L17.4829 32.2502L27.8525 32.2502L27.8525 29.4566L30.6461 29.4566L30.6534 12.7722L27.8525 12.7722L27.8525 9.97708L17.4829 9.97708L17.4902 12.7722L14.6893 12.7722L14.6893 9.97129L11.8883 9.97129L11.8883 12.7722L14.6893 12.7722L14.6863 19.6713L17.4872 19.6713L17.4872 22.4722L14.6863 22.4722L14.682 29.4248L11.881 29.4248ZM22.2454 24.2841L22.2454 27.0726L22.9936 27.0726L22.9936 24.2841L22.2454 24.2841ZM22.2454 15.057L22.2454 17.8455L22.9936 17.8455L22.9936 15.057L22.2454 15.057ZM22.2454 18.8621L22.2454 23.2675L24.9612 23.2675L24.9612 18.8621L22.2454 18.8621Z" fill="#FF5107"/>
<path d="M32.5952 0.497335L32.5952 3.29248L38.4517 3.29248L38.4517 0.497334L32.5952 0.497335Z" fill="#FF5107"/>
<path d="M51.4451 13.1885L54.2402 13.1885L54.2402 7.33198L51.4451 7.33198L51.4451 13.1885Z" fill="#FF5107"/>
<path d="M51.4451 37.667L54.2402 37.667L54.2402 31.8105L51.4451 31.8105L51.4451 37.667Z" fill="#FF5107"/>
<path d="M0.760254 34.8718L0.760254 37.667L6.61675 37.667L6.61675 34.8718L0.760254 34.8718Z" fill="#FF5107"/>
</svg>
